X:1
T:SALVE REGINA
T:SALVE REGINA
%%score [ 1 ( 2 3 ) 4 5 ]
L:1/8
Q:1/4=120
M:2/2
K:G
V:1 treble nm="Soprano" snm="S"
V:2 treble nm="Alto" snm="A"
V:3 treble 
V:4 treble-8 nm="Tenore" snm="T"
V:5 bass nm="Basso" snm="B"
V:1
 G4 G2 G2 | B4 B4 | B4 A2 G2 | A2 A2 B2 B2 | B8 | G4 G2 G2 | B4 B4 | B4 (A2 G2) | A2 A2 B4 | B8 | %10
w: Sal- ve, Re-|gi- na,|ma- ter mi-|se- ri- cor- di-|ae:|vi- ta, dul-|ce- do,|et spes _|no- stra sal-|ve.|
 d4 d2 d2 | B4 B4 | d4 d2 d2 | B4 B2 B2 | e4 e2 e2 | d4 c2 c2 | B4 !fermata!B4 | G2 G2 G2 G2 | %18
w: Ad te cla-|ma- mus,|ex- su- les,|fi- li- i|ex- su- les,|fi- li- i|He- vae.|Ad te su- spi-|
 F4 F2 F2 | F4 F2 F2 | E4 E4 | F2 F2 F2 F2 | C4 (D2 E2) | B,4 B,4 | B2 B2 B2 B2 | A2 G2 c2 c2 | %26
w: ra- mus, ge-|men- tes et|flen- tes|in hac la- cri-|ma- rum _|val- le.|E- ia er- go,|ad- vo- ca- ta|
 c2 c2 F4 | (G2 A2) B4 | E2 E2 (E2 ^D2) | (G2 F2) F2 F2 | E8 | (E2 ^D2) G2 F2 | F4 !fermata!E4 | %33
w: no- stra, il-|los _ tu-|os mi- se- ri-|cor- des o- cu-|los|ad _ nos con-|ver- te.|
 B,4 E4 | B,4 B,2 B,2 | F4 G4 | G4 F2 E2 | F2 F2 B4 | B4 A2 G2 | A4 B4 | d8 | B8 | e4 e4 | %43
w: Et Je-|sum, be- ne-|di- ctum,|et Je- sum|be- ne- di-|ctum fru- ctum|ven- tris|tu-|i,|no- bis|
 e4 e2 e2 | d2 d2 d4 | c4 c4 | c4 d2 c2 | B2 B2 B4 | B8 | (B4 A4) | B8 | (G4 A2) B2 | c4 c4 | %53
w: post hoc ex-|si- li- um,|no- bis|post hoc ex-|si- li- um|o-|sten- *|de.|O _ _|cle- mens,|
 (B4 e4) | e4 e2 f2 | g4 g2 g2 | f4 d2 d2 | (e4 d4) | e8 || (c4 e4) | f4 f4 | (e4 ^d2) d2 | e8 | %63
w: o _|cle- mens, o|pi- a, o|cle- mens, o|pi- *|a|o _|dul- cis|vir- go Ma-|ri-|
 !fermata!e8 |] %64
w: a.|
V:2
 x8 | x8 | x8 | x8 | x8 | x8 | x8 | x8 | x8 | x8 | x8 | x8 | x8 | x8 | x8 | x8 | x8 | z8 | z8 | %19
 z8 | z8 | z8 | z8 | z8 | z8 | z8 | z8 | z8 | z8 | z8 | z8 | z8 | z8 | z8 | z8 | z8 | z8 | z8 | %38
 z8 | z8 | z8 | z8 |"^Instrument change" x8 | x8 | x8 | x8 | x8 | x8 | x8 | x8 | x8 | x8 | x8 | %53
 x8 | x8 | x8 | x8 | x8 | x8 || x8 | x8 | x8 | x8 | x8 |] %64
V:3
 E4 E2 E2 | E4 E4 | E4 E2 E2 | E2 E2 E2 E2 | E8 | E4 E2 E2 | E4 E4 | E4 E4 | E2 E2 E4 | E8 | %10
w: Sal- ve, Re-|gi- na,|ma- ter mi-|se- ri- cor- di-|ae:|vi- ta, dul-|ce- do,|et spes|no- stra sal-|ve.|
 F4 F2 F2 | G4 G4 | F4 F2 F2 | G4 G2 G2 | G4 G2 G2 | G4 (E2 F2) | G4 !fermata!F4 | x8 | x8 | x8 | %20
w: Ad te cla-|ma- mus,|ex- su- les,|fi- li- i|ex- su- les,|fi- li- i|He- vae.||||
 x8 | x8 | x8 | x8 | x8 | x8 | x8 | x8 | x8 | x8 | x8 | x8 | x8 | x8 | x8 | x8 | x8 | x8 | x8 | %39
w: |||||||||||||||||||
 x8 | x8 | x8 | G4 G4 | G4 G2 G2 | G2 G2 G4 | G4 G4 | F4 F2 F2 | G2 G2 G4 | F8 | E8 | ^D8 | E8 | %52
w: |||no- bis|post hoc ex-|si- li- um,|no- bis|post hoc ex-|si- li- um|o-|sten-|de.|O|
 E4 E4 | (G4 (A2) B2) | c4 c2 c2 | B4 B2 B2 | B4 F2 F2 | F8 | G8 || (E4 A4) | A4 A4 | F4 F2 F2 | %62
w: cle- mens,|o _ _|cle- mens, o|pi- a, o|cle- mens, o|pi-|a|o _|dul- cis|vir- go Ma-|
 ^G8 | !fermata!^G8 |] %64
w: ri-|a.|
V:4
 B4 B2 B2 | B4 B4 | c4 c2 c2 | c2 c2 B2 B2 | B8 | B4 B2 B2 | B4 B4 | c4 c4 | c2 c2 B4 | B8 | %10
w: Sal- ve, Re-|gi- na,|ma- ter mi-|se- ri- cor- di-|ae:|vi- ta, dul-|ce- do,|et spes|no- stra sal-|ve.|
 B4 B2 B2 | B4 B4 | B4 B2 B2 | B4 B2 B2 | c4 c2 c2 | B4 c2 c2 | e4 !fermata!^d4 | B2 B2 B2 B2 | %18
w: Ad te cla-|ma- mus,|ex- su- les,|fi- li- i|ex- su- les,|fi- li- i|He- vae.|Ad te su- spi-|
 A4 A2 A2 | A4 A2 A2 | G4 G4 | A2 A2 A2 A2 | A4 A4 | G4 G4 | G2 G2 G2 G2 | F2 E2 E2 E2 | E2 E2 c4 | %27
w: ra- mus, ge-|men- tes et|flen- tes|in hac la- cri-|ma- rum|val- le.|E- ia er- go,|ad- vo- ca- ta|no- stra, il-|
 c4 B4 | B2 B2 A2 A2 | B2 B2 G2 G2 | G8 | A4 B2 B2 | G4 !fermata!G4 | G4 G4 | F4 F2 F2 | F4 E4 | %36
w: los tu-|os mi- se- ri-|cor- des o- cu-|los|ad nos con-|ver- te.|Et Je-|sum, be- ne-|di- ctum,|
 E4 e2 e2 | d2 d2 d4 | e4 e2 e2 | e4 e4 | f8 | g8 | x8 | x8 | x8 | x8 | x8 | x8 | x8 | x8 | x8 | %51
w: et Je- sum|be- ne- di-|ctum fru- ctum|ven- tris|tu-|i,||||||||||
 x8 | x8 | x8 | x8 | x8 | x8 | x8 | x8 || (A4 c4) | c4 c4 | B4 B2 B2 | B8 | !fermata!B8 |] %64
w: ||||||||o _|dul- cis|vir- go Ma-|ri-|a.|
V:5
 E,4 E,2 E,2 | G,4 G,4 | A,4 A,2 A,2 | A,2 A,2 G,2 G,2 | G,8 | E,4 E,2 E,2 | G,4 G,4 | A,4 A,4 | %8
w: Sal- ve, Re-|gi- na,|ma- ter mi-|se- ri- cor- di-|ae:|vi- ta, dul-|ce- do,|et spes|
 A,2 A,2 G,4 | G,8 | B,,4 B,,2 B,,2 | E,4 E,4 | B,,4 B,,2 B,,2 | E,4 E,2 E,2 | C,4 C,2 C,2 | %15
w: no- stra sal-|ve.|Ad te cla-|ma- mus,|ex- su- les,|fi- li- i|ex- su- les,|
 G,4 A,2 A,2 | E,4 !fermata!B,,4 | E,2 E,2 E,2 E,2 | E,4 E,2 E,2 | E,4 E,2 E,2 | E,4 E,4 | %21
w: fi- li- i|He- vae.|Ad te su- spi-|ra- mus, ge-|men- tes et|flen- tes|
 E,2 E,2 E,2 E,2 | E,4 E,4 | E,4 E,4 | C,2 C,2 C,2 C,2 | C,2 C,2 A,,2 A,,2 | A,,2 A,,2 A,,4 | %27
w: in hac la- cri-|ma- rum|val- le.|E- ia er- go,|ad- vo- ca- ta|no- stra, il-|
 A,,4 G,,4 | G,2 G,2 F,2 F,2 | ^D,2 D,2 E,2 E,2 | E,8 | F,4 ^D,2 D,2 | E,4 !fermata!E,4 | E,4 E,4 | %34
w: los tu-|os mi- se- ri-|cor- des o- cu-|los|ad nos con-|ver- te.|Et Je-|
 D,4 D,2 D,2 | D,4 C,4 | C,4 C,2 C,2 | B,,2 B,,2 B,,4 | C,4 C,2 C,2 | C,4 C,4 | B,,8 | E,8 | %42
w: sum, be- ne-|di- ctum,|et Je- sum|be- ne- di-|ctum fru- ctum|ven- tris|tu-|i,|
 C,4 C,4 | C,4 C,2 C,2 | B,,2 B,,2 B,,4 | A,,4 A,,4 | D,4 D,2 D,2 | E,2 E,2 E,4 | D,8 | C,8 | %50
w: no- bis|post hoc ex-|si- li- um,|no- bis|post hoc ex-|si- li- um|o-|sten-|
 B,,8 | (E,4 F,2) G,2 | A,4 A,4 | (E4 C2) B,2 | A,4 A,2 A,2 | E,4 E,2 E,2 | D,4 B,2 B,2 | B,8 | %58
w: de.|O _ _|cle- mens,|o _ _|cle- mens, o|pi- a, o|cle- mens, o|pi-|
 E,8 || (A,,4 C,2 E,2) | ^D,4 D,4 | B,4 B,2 B,2 | E,8 | !fermata!E,8 |] %64
w: a|o _ _|dul- cis|vir- go Ma-|ri-|a.|

